assets/logos/microsoft-teams.svg

<svg width="80" height="80" viewBox="0 0 80 80" fill="none" xmlns="http://www.w3.org/2000/svg">
<path d="M42 29.334C47.155 29.334 51.334 25.155 51.334 20C51.334 14.845 47.155 10.666 42 10.666C36.845 10.666 32.666 14.845 32.666 20C32.666 25.155 36.845 29.334 42 29.334Z" fill="#7B83EB"/>
<path opacity="0.1" d="M41.334 22H32.88L32.922 22.186L32.926 22.202L32.97 22.374C33.5843 24.7034 35.0747 26.7055 37.13 27.9622C39.1853 29.2188 41.6466 29.6329 44 29.118V24.666C43.9979 23.9596 43.7163 23.2827 43.2168 22.7832C42.7173 22.2837 42.0404 22.0021 41.334 22Z" fill="black"/>
<path opacity="0.2" d="M39.334 24H33.566C34.323 25.596 35.5174 26.9445 37.0104 27.8887C38.5033 28.8329 40.2336 29.3341 42 29.334V26.666C41.9979 25.9596 41.7164 25.2827 41.2169 24.7832C40.7173 24.2837 40.0405 24.0021 39.334 24Z" fill="black"/>
<path d="M63 30C66.866 30 70 26.866 70 23C70 19.134 66.866 16 63 16C59.134 16 56 19.134 56 23C56 26.866 59.134 30 63 30Z" fill="#5059C9"/>
<path d="M69 32H53.278C52.9385 32 52.6129 32.1349 52.3729 32.3749C52.1328 32.6149 51.998 32.9405 51.998 33.28V49.5C51.9546 51.8475 52.7192 54.1386 54.1635 55.9896C55.6079 57.8407 57.6444 59.1393 59.932 59.668C61.3889 59.9737 62.8957 59.9507 64.3427 59.6005C65.7896 59.2504 67.1403 58.582 68.2963 57.644C69.4523 56.706 70.3846 55.522 71.0253 54.1782C71.666 52.8344 71.999 51.3647 72 49.876V35C72 34.2044 71.6839 33.4413 71.1213 32.8787C70.5587 32.3161 69.7956 32 69 32Z" fill="#5059C9"/>
<path d="M58 35V54C58.002 57.5211 56.8416 60.9444 54.6991 63.7386C52.5566 66.5328 49.5516 68.5417 46.1506 69.4535C42.7497 70.3653 39.1428 70.129 35.8898 68.7813C32.6369 67.4336 29.9197 65.0499 28.16 62C27.7751 61.3604 27.4408 60.6917 27.16 60C26.8982 59.3479 26.6778 58.6799 26.5 58C26.1703 56.6922 26.0024 55.3488 26 54V35C25.9995 34.6059 26.0767 34.2155 26.2273 33.8513C26.3779 33.4871 26.5988 33.1562 26.8775 32.8775C27.1562 32.5988 27.4871 32.3779 27.8513 32.2273C28.2155 32.0767 28.6059 31.9995 29 32H55C55.3941 31.9995 55.7845 32.0767 56.1487 32.2273C56.5129 32.3779 56.8438 32.5988 57.1225 32.8775C57.4012 33.1562 57.6221 33.4871 57.7727 33.8513C57.9233 34.2155 58.0005 34.6059 58 35Z" fill="#7B83EB"/>
<path opacity="0.2" d="M39.334 24H33.566C34.323 25.596 35.5174 26.9445 37.0104 27.8887C38.5033 28.8329 40.2336 29.3341 42 29.334V26.666C41.9979 25.9596 41.7164 25.2827 41.2169 24.7832C40.7173 24.2837 40.0405 24.0021 39.334 24Z" fill="black"/>
<path opacity="0.1" d="M44 32V57.34C44 57.9429 43.7937 58.5277 43.4153 58.997C43.0369 59.4664 42.5092 59.7921 41.92 59.92C41.7319 59.976 41.5363 60.003 41.34 60H27.16C26.8982 59.3479 26.6778 58.6799 26.5 58C26.1703 56.6922 26.0024 55.3488 26 54V35C25.9995 34.6059 26.0767 34.2155 26.2273 33.8513C26.3779 33.4871 26.5988 33.1562 26.8775 32.8775C27.1562 32.5988 27.4871 32.3779 27.8513 32.2273C28.2155 32.0767 28.6059 31.9995 29 32H44Z" fill="black"/>
<path opacity="0.2" d="M42 32V59.34C42.0029 59.5363 41.9759 59.7318 41.92 59.92C41.7921 60.5092 41.4664 61.0369 40.997 61.4153C40.5277 61.7937 39.9429 62 39.34 62H28.16C27.7751 61.3604 27.4408 60.6917 27.16 60C26.8982 59.3479 26.6778 58.6799 26.5 58C26.1703 56.6922 26.0024 55.3488 26 54V35C25.9995 34.6059 26.0767 34.2155 26.2273 33.8513C26.3779 33.4871 26.5988 33.1562 26.8775 32.8775C27.1562 32.5988 27.4871 32.3779 27.8513 32.2273C28.2155 32.0767 28.6059 31.9995 29 32H42Z" fill="black"/>
<path opacity="0.2" d="M42 32V55.34C41.9968 56.0445 41.7156 56.7192 41.2174 57.2174C40.7193 57.7156 40.0445 57.9968 39.34 58H26.5C26.1703 56.6921 26.0024 55.3488 26 54V35C25.9995 34.6059 26.0767 34.2155 26.2273 33.8513C26.3779 33.4871 26.5988 33.1562 26.8775 32.8775C27.1562 32.5988 27.4871 32.3779 27.8513 32.2273C28.2155 32.0767 28.6059 31.9995 29 32H42Z" fill="black"/>
<path opacity="0.2" d="M29 32C28.6059 31.9995 28.2155 32.0767 27.8513 32.2273C27.4871 32.3779 27.1562 32.5988 26.8775 32.8775C26.5988 33.1562 26.3779 33.4871 26.2273 33.8513C26.0767 34.2155 25.9995 34.6059 26 35V54C26.0024 55.3488 26.1703 56.6921 26.5 58H37.34C38.0445 57.9968 38.7193 57.7156 39.2174 57.2174C39.7156 56.7192 39.9968 56.0445 40 55.34V32H29Z" fill="black"/>
<path d="M10.666 24H37.334C38.0411 24 38.7192 24.2809 39.2191 24.7809C39.7191 25.2808 40 25.9589 40 26.666V53.334C40 54.0411 39.7191 54.7192 39.2191 55.2191C38.7192 55.7191 38.0411 56 37.334 56H10.666C9.95893 56 9.28083 55.7191 8.78085 55.2191C8.28088 54.7192 8 54.0411 8 53.334V26.666C8 25.9589 8.28088 25.2808 8.78085 24.7809C9.28083 24.2809 9.95893 24 10.666 24Z" fill="#4B53BC"/>
<path d="M31.96 33.95H25.98V49.99H22.056V33.95H16.04V30.01H31.96V33.95Z" fill="white"/>
</svg>

<svg xmlns="http://www.w3.org/2000/svg" width="80" height="80" fill="none" viewBox="0 0 80 80"><path fill="#7b83eb" d="M42 29.334a9.334 9.334 0 1 0 0-18.668 9.334 9.334 0 0 0 0 18.668"/><path fill="#000" d="M41.334 22H32.88l.042.186.004.016.044.172A9.34 9.34 0 0 0 44 29.118v-4.452A2.674 2.674 0 0 0 41.334 22" opacity=".1"/><path fill="#000" d="M39.334 24h-5.768A9.33 9.33 0 0 0 42 29.334v-2.668A2.674 2.674 0 0 0 39.334 24" opacity=".2"/><path fill="#5059c9" d="M63 30a7 7 0 1 0 0-14 7 7 0 0 0 0 14m6 2H53.278a1.28 1.28 0 0 0-1.28 1.28V49.5a10.24 10.24 0 0 0 7.934 10.168A10.01 10.01 0 0 0 72 49.876V35a3 3 0 0 0-3-3"/><path fill="#7b83eb" d="M58 35v19a15.99 15.99 0 0 1-29.84 8 14 14 0 0 1-1-2 17 17 0 0 1-.66-2 16.5 16.5 0 0 1-.5-4V35a2.996 2.996 0 0 1 3-3h26a2.996 2.996 0 0 1 3 3"/><path fill="#000" d="M39.334 24h-5.768A9.33 9.33 0 0 0 42 29.334v-2.668A2.674 2.674 0 0 0 39.334 24" opacity=".2"/><path fill="#000" d="M44 32v25.34a2.64 2.64 0 0 1-2.08 2.58 2 2 0 0 1-.58.08H27.16a17 17 0 0 1-.66-2 16.5 16.5 0 0 1-.5-4V35a2.996 2.996 0 0 1 3-3z" opacity=".1"/><path fill="#000" d="M42 32v27.34a2 2 0 0 1-.08.58A2.64 2.64 0 0 1 39.34 62H28.16a14 14 0 0 1-1-2 17 17 0 0 1-.66-2 16.5 16.5 0 0 1-.5-4V35a2.996 2.996 0 0 1 3-3z" opacity=".2"/><path fill="#000" d="M42 32v23.34A2.67 2.67 0 0 1 39.34 58H26.5a16.5 16.5 0 0 1-.5-4V35a2.996 2.996 0 0 1 3-3z" opacity=".2"/><path fill="#000" d="M29 32a2.996 2.996 0 0 0-3 3v19c.002 1.349.17 2.692.5 4h10.84A2.67 2.67 0 0 0 40 55.34V32z" opacity=".2"/><path fill="#4b53bc" d="M10.666 24h26.668A2.666 2.666 0 0 1 40 26.666v26.668A2.666 2.666 0 0 1 37.334 56H10.666A2.666 2.666 0 0 1 8 53.334V26.666A2.666 2.666 0 0 1 10.666 24"/><path fill="#fff" d="M31.96 33.95h-5.98v16.04h-3.924V33.95H16.04v-3.94h15.92z"/></svg>
